images/tiktok.svg

<svg width="23" height="25" viewBox="0 0 23 25" fill="none" xmlns="http://www.w3.org/2000/svg">
<path fill-rule="evenodd" clip-rule="evenodd" d="M12.0762 8.8591C12.0502 18.8385 12.0839 18.0455 11.6498 18.8913C11.2667 19.6379 10.6894 20.192 9.91547 20.5564C9.26505 20.8626 8.91359 20.94 8.1776 20.9391C7.45955 20.9384 7.09792 20.8603 6.49084 20.5754C5.71744 20.2125 5.09691 19.6197 4.72782 18.8913C4.4285 18.3005 4.3482 17.9602 4.34738 17.2783C4.34646 16.5708 4.42671 16.244 4.76145 15.592C4.96305 15.1993 5.07146 15.0595 5.46422 14.6858C5.97106 14.2035 6.43231 13.9361 7.10421 13.7351C7.59689 13.5877 8.40838 13.5525 8.91875 13.6565C9.12959 13.6995 9.33088 13.7346 9.366 13.7346C9.41609 13.7347 9.42989 13.2921 9.42989 11.6848V9.63493L9.1871 9.59588C9.05354 9.57442 8.57629 9.55849 8.12648 9.56049C6.81168 9.56641 5.77678 9.78963 4.63842 10.3129C0.150164 12.376 -1.37155 17.6003 1.36647 21.5459C1.83948 22.2275 2.86058 23.2107 3.55179 23.65C5.68615 25.0068 8.26168 25.358 10.7077 24.6258C12.8996 23.9698 14.8597 22.2537 15.7402 20.2197C15.9686 19.6919 16.1427 19.1125 16.2568 18.5002C16.3408 18.0494 16.3468 17.6308 16.3345 13.1115C16.3271 10.4164 16.3371 8.21147 16.3566 8.21147C16.3762 8.21147 16.476 8.27462 16.5785 8.35179C17.1557 8.78671 18.3169 9.3817 19.2048 9.69745C20.1976 10.0505 21.6108 10.3132 22.5173 10.3132H22.9762L22.9628 8.297L22.9495 6.28079L22.4554 6.24995C20.888 6.1521 19.4644 5.52759 18.2916 4.42344C17.1505 3.3492 16.4802 1.96821 16.3518 0.427681L16.3162 0H14.2077H12.0992L12.0762 8.8591Z" fill="#F5F5F6"/>
</svg>

<svg width="23" height="25" fill="none" xmlns="http://www.w3.org/2000/svg"><path fill-rule="evenodd" clip-rule="evenodd" d="M12.076 8.86c-.026 9.979.008 9.186-.426 10.031a3.621 3.621 0 01-1.735 1.665c-.65.307-1.001.384-1.737.383-.718 0-1.08-.079-1.687-.364a3.747 3.747 0 01-1.763-1.684c-.3-.59-.38-.93-.38-1.613-.002-.707.079-1.034.413-1.686.202-.393.31-.533.703-.906.507-.482.968-.75 1.64-.95.493-.148 1.304-.184 1.815-.08.21.043.412.079.447.079.05 0 .064-.443.064-2.05v-2.05l-.243-.04c-.133-.02-.61-.037-1.06-.035-1.315.006-2.35.23-3.489.753C.15 12.376-1.372 17.6 1.366 21.546c.473.681 1.495 1.665 2.186 2.104 2.134 1.357 4.71 1.708 7.156.976 2.192-.656 4.152-2.372 5.032-4.406a8.054 8.054 0 00.517-1.72c.084-.45.09-.87.077-5.389-.007-2.695.003-4.9.023-4.9s.119.064.221.14c.578.436 1.739 1.03 2.627 1.346.993.354 2.406.616 3.312.616h.46l-.014-2.016-.014-2.016-.494-.031c-1.567-.098-2.99-.722-4.163-1.827a6.109 6.109 0 01-1.94-3.995L16.316 0H12.1l-.023 8.86z" fill="#F5F5F6"/></svg>
